Adwaita++-Dark/emotes/symbolic/face-raspberry-wink-symbolic.svg

<svg height="16" width="16" xmlns="http://www.w3.org/2000/svg">
  <path clip-rule="evenodd" d="m8 1c-3.866 0-7 3.134-7 7s3.134 7 7 7 7-3.134 7-7-3.134-7-7-7zm-5 8.0625c.99656.6369 4.0165.9375 5 .9375l.15686.0003h.00002c.51873.0014 1.36743.0036 2.24932-.09399.9776-.10827 1.996-.35958 2.5938-.84375v.5c0 .44154-.7534.91904-2.1562 1.18754l.25.5312c.279.6033.0833 1.2756-.4375 1.5312l-.25.125c-.52083.2556-1.1749-.0293-1.4688-.625l-.625-1.2812c-.00723-.0147-.01175-.0232-.01548-.0302-.00511-.0096-.00872-.0165-.01571-.0323-.06345.0007-.1226.0005-.18394.0002h-.00005-.00006l-.0972-.0002c-3.2558 0-5-.8737-5-1.40618zm1.51791-5.17144c.35251-.49143 1.01498-.96206 1.98461-.99514.14477-.00426.28965.00079.43377.01512l-.09068.93939c-.92521-.08789-1.30799.24004-1.55937.59066-.25233.35062-.30526.72203-.30526.72203l-.93744-.11908c.06811-.41548.23035-.80988.47437-1.15298zm.75137 3.11588c0-1.06509.3298-1.92037.72956-1.89013.38369.0293.68803.86757.68803 1.89013 0 2.51669-1.41759 2.51669-1.41759 0zm4.32268-1.39492c.09828-.02358.19863-.0375.2996-.04158l.00093.00094c.70501-.02929 1.45531.40165 2.06401 1.1955l-.7494.57649c-.5444-.71068-1.1331-.87323-1.39491-.81085-.13136.03118-.20418.08504-.26372.22208-.06332.13609-.0945.3818 0 .74754l-.91668.23627c-.13042-.51317-.12004-.98003.05007-1.36656.08349-.18781.20896-.35397.36674-.4857.15778-.13172.34366-.22551.54336-.27413z" fill="#e6ddff" fill-rule="evenodd"/>
</svg>

<svg xmlns="http://www.w3.org/2000/svg" width="16" height="16">
 <path fill="#E6DDFF" fill-rule="evenodd" d="M8 1C4.134 1 1 4.134 1 8C1 11.866 4.134 15 8 15C11.866 15 15 11.866 15 8C15 4.134 11.866 1 8 1ZM3 9.0625C3.99656 9.6994 7.0165 10 8 10L8.15686 10.0003H8.15688C8.67561 10.0017 9.52431 10.0039 10.4062 9.90631C11.3838 9.79804 12.4022 9.54673 13 9.06256V9.56256C13 10.0041 12.2466 10.4816 10.8438 10.7501L11.0938 11.2813C11.3728 11.8846 11.1771 12.5569 10.6563 12.8125L10.4063 12.9375C9.88547 13.1931 9.2314 12.9082 8.9375 12.3125L8.3125 11.0313C8.30527 11.0166 8.30075 11.0081 8.29702 11.0011C8.29191 10.9915 8.2883 10.9846 8.28131 10.9688C8.21786 10.9695 8.15871 10.9693 8.09737 10.969H8.09732H8.09726L8.00006 10.9688C4.74426 10.9688 3.00006 10.0951 3.00006 9.56262L3 9.0625ZM4.51791 3.89106C4.87042 3.39963 5.53289 2.929 6.50252 2.89592C6.64729 2.89166 6.79217 2.89671 6.93629 2.91104L6.84561 3.85043C5.9204 3.76254 5.53762 4.09047 5.28624 4.44109C5.03391 4.79171 4.98098 5.16312 4.98098 5.16312L4.04354 5.04404C4.11165 4.62856 4.27389 4.23416 4.51791 3.89106ZM5.26928 7.00694C5.26928 5.94185 5.59908 5.08657 5.99884 5.11681C6.38253 5.14611 6.68687 5.98438 6.68687 7.00694C6.68687 9.52363 5.26928 9.52363 5.26928 7.00694ZM9.59196 5.61202C9.69024 5.58844 9.79059 5.57452 9.89156 5.57044L9.89249 5.57138C10.5975 5.54209 11.3478 5.97303 11.9565 6.76688L11.2071 7.34337C10.6627 6.63269 10.074 6.47014 9.81219 6.53252C9.68083 6.5637 9.60801 6.61756 9.54847 6.7546C9.48515 6.89069 9.45397 7.1364 9.54847 7.50214L8.63179 7.73841C8.50137 7.22524 8.51175 6.75838 8.68186 6.37185C8.76535 6.18404 8.89082 6.01788 9.0486 5.88615C9.20638 5.75443 9.39226 5.66064 9.59196 5.61202Z" clip-rule="evenodd"/>
</svg>
